!!!!SEGMENT: pl-sa--481-a-viii-121--024_anonim--valc.krn
!!!cenid: 18xx:395
!!!COM: Anonim
!!!COM-rismID: pe30004985
!!!CDT:
!!!CNT:
!!!OTL: Valc
!!!PDT:
!!!AGN: Secular; Waltz
!!!SMS-siglum: PL-SA
!!!SMS-shelfmark: 481/A VIII 121
!!!SMS-shelfwork: 024 W
!!!SMS-variant:
!!!SMS-altvar:
!!!NIFC-rismSourceID: 1001070688
!!!NIFC-islandoraID:
!!!URL-pdf-islandora:
!!!URL-scan: https://bc.bdsandomierz.pl/dlibra/publication/1212/edition/1171/content @EN{Scan in the Sandomierz Diocese Digital Library} @PL{Skany w portalu Cyfrowa Biblioteka Diecezjalna w Sandomierzu}
!!!ONB-nifc: Str. 19, s, 4-5
!!!AIN: 2 piano
!!!key:
**kern	**kern
*part2	*part1
*staff2	*staff1
*Ipiano	*Ipiano
*I"Piano	*I"Piano
*clefF4	*clefG2
*k[]	*k[]
*C:	*C:
*M2/4	*M2/4
*>[A,A,B,B]	*>[A,A,B,B]
=1	=1
*>A	*>A
!LO:TX:a:t=P:problem=błędnie wpisany klucz F3	!LO:TX:a:i:t=Valc Vigil&colon;
4G 4E 4C\	8gg\L
.	8ee\J
4G 4E 4C\	8gg\L
.	8ee\J
=2	=2
8AL 8F 8C\	16ff\LL
.	16ee\
!LO:N:vis=8	!
8.A 8.F 8.C\	16ff\
.	16gg\JJ
!	!LO:N:vis=8
.	4aa\
!LO:N:vis=8	!
8.AJ 8.F 8.C\	.
=3	=3
4G 4D 4BB\	8ff\L
.	8dd\J
4G 4D 4BB\	8ff\L
.	8dd\J
=4	=4
8GL 8E 8C\	16ee\LL
.	16dd\
!LO:N:vis=8	!
8.G 8.E 8.C\	16ee\
.	16ff\JJ
!	!LO:N:vis=8
.	4gg\
!LO:N:vis=8	!
8.GJ 8.E 8.C\	.
=5:|!|:	=5:|!|:
*>B	*>B
!	!LO:TX:a:t=P:problem=mixed beam
8DL 8BB\	8gg\L
8G\J	8g/J
!	!LO:TX:a:t=P:problem=mixed beam
8DL 8BB\	8gg\L
8G\J	8g/J
=6	=6
8EL 8C\	16cc\LL
.	16b\
8G\J	16cc\
.	16dd\JJ
8EL 8C\	16ee\LL
.	16dd\
8G\J	16ee\
.	16ff\JJ
!LO:LB:g=original	!LO:LB:g=original
=7	=7
!	!LO:TX:a:t=P:problem=mixed beam
8DL 8BB\	8gg\L
8G\J	8g/J
!	!LO:TX:a:t=P:problem=mixed beam
8DL 8BB\	8gg\L
8G\J	8g/J
=8	=8
8EL 8C\	16cc\LL
.	16dd\
8G\J	16ee\
.	16dd\JJ
8EL 8C\	4cc\
!	!LO:TX:a:t=P:problem=po kresce taktowej dopisane dwa takty małymi nutkami
8G\J	.
=:|!;;	=:|!;;
*-	*-
!!!system-decoration: s1,s2
!!!ENC: Marta Lawrence
!!!END: 2020-11-21
!!!ENC: Andrzej Kubiczek
!!!END: 2020-06-14
!!!YEC: Copyright 2022 Narodowy Instytut Fryderyka Chopina (https://polishscores.org)
!!!YEM: Licence CC BY 4.0 (https://creativecommons.org/licenses/by/4.0)
